X: 15642
T: Going For Water
R: slide
M: 12/8
K: Dmajor
|:aba f2d aba f2d|e2A cBA e2A cBA|
aba f2d aba f2d|e2A cBA f2e d3:|
|:F2G A2d F2G A2d|e2A cBA e2A cBA|
F2G A2d F2G A2d|e2A cBA f2e d3:|

